X:1
T:Black Schooner
C:John Spencer, 1999
L:1/8
M:4/4
K:G
|:"Em"BE (3EEE EDEF|"C"GEFG "D"AFGA|"Em"BE (3EEE EFGE|"D"FDFA dcBA|
"Em"BE (3EEE EDEF|"C"GEFG "D"A2 GA|"G"Bcdc BABG|"D"FDFA dcBA:|
|:"Em"Beed eB (3BBB|gBfB eB (3BBB|Beed eB (3BBB|"D"faag fd (3ddd|
Beed eB (3BBB|gBfB eB (3BBB|"G"dcdB ABAG|"D"FAFG ABcA:|
